svgs/sharp-regular/phone-intercom.svg

<svg xmlns="http://www.w3.org/2000/svg" viewBox="0 0 512 512"><!--! Font Awesome Pro 6.6.0 by @fontawesome - https://fontawesome.com License - https://fontawesome.com/license (Commercial License) Copyright 2024 Fonticons, Inc. --><path d="M128 80l0 352-80 0L48 80l80 0zM48 480l80 0 48 0 288 0 48 0 0-48 0-352 0-48-48 0L176 32l-48 0L48 32 0 32 0 80 0 432l0 48 48 0zm128-48l0-352 288 0 0 352-288 0zm80-48a48 48 0 1 0 0-96 48 48 0 1 0 0 96zm80-96l0 32 16 0 64 0 16 0 0-32-16 0-64 0-16 0zm0 64l0 32 16 0 64 0 16 0 0-32-16 0-64 0-16 0zm96-240l-224 0 0 128 224 0 0-128z"/></svg>

<svg xmlns="http://www.w3.org/2000/svg" viewBox="0 0 512 512"><!--! Font Awesome Pro 6.4.2 by @fontawesome - https://fontawesome.com License - https://fontawesome.com/license (Commercial License) Copyright 2023 Fonticons, Inc. --><path d="M128 80V432H48V80h80zM48 480h80 48H464h48V432 80 32H464 176 128 48 0V80 432v48H48zm128-48V80H464V432H176zm80-48a48 48 0 1 0 0-96 48 48 0 1 0 0 96zm80-96v32h16 64 16V288H416 352 336zm0 64v32h16 64 16V352H416 352 336zm96-240H208V240H432V112z"/></svg>
